X:493
T: "Uebele Vorbedeutung"
N: Z1173
O: Europa, Mitteleuropa, Deutschland, Niederrhein
R: Liebes - Lied
M: 3/4
L: 1/4
K: G
G2B | d3 | e3 | d2B |
ddd | c2d | B3 |
G2B | d3 | e3 | d2B |
ddd | c2d | B2
d | B2G | A3 | d3 | B2G |
BBB | AGA | G3

@@@ Tune index: 10251
